X:1
T:X. L. Rag
T:X. L. Rag
T:March Two-Step
T:Composed by L. Edgar Settle
T:Copyright 1903 by A. W. Perry &amp; Sons' Music Co
T:Copyright 1903 by A. W. Perry &amp; Sons' Music Co
T:Copyright 1903 by A. W. Perry &amp; Sons' Music Co
T:Copyright 1903 by A. W. Perry &amp; Sons' Music Co
T:Copyright 1903 by A. W. Perry &amp; Sons' Music Co
C:Composed by L. Edgar Settle
Z:Copyright 1903 by A. W. Perry & Sons' Music Co
%%score { 1 | 2 }
L:1/8
Q:1/4=100
M:4/8
K:Db
V:1 treble nm="Piano" snm="Pno."
V:2 bass 
V:1
"^INTRO." B/dB/"^Respectfully dedicated to the X. L. Club of New Franklin Mo." d=A/d/ | %1
 A/d/f/[Aa] f/d/A/ | [=GB]/dB/ [Gd][_Ge] |!<(! [FAd][Aa][Bb][dd']!<)! |:S!f! c'[cgc'] b[cgb]/d'/ | %5
 c'/a/b/[cgc'] a/b/a/ | c'[dfc'] b[dfb]/d'/ | c'/a/b/[dfc'] b/a/f/ | [=Gdf]e/B e/f/e/ | %9
 [Gcf]e/[GA] [GA]/B/c/ | [FAe]/dA/ [D=Ec][DEB] |!<(! [DFA] [Aa][Bb][dd']!<)! | %12
 c'[cgc'] b[cgb]/d'/ | c'/a/b/[cgc'] a/b/a/ | c'[dfc'] b[dfb]/d'/ | c'/a/b/[dfc'] b/a/f/ | %16
 [Be]d/[=Ae] d/[Ae]/d/ | [Adf]/ba f/e/d/ | [=Gf]/d/e/[_Gdf] c/[Gce] |1,3 %19
 [FAd][Aa][Bb][dd']!D.S.! :|2 [FAd][Ff][Gg][=G=g] |: [Aa]B/[cega] B/[cega]/B/ | %22
 [Aa]B/[cega] B/[cega]/B/ | z/ A/d/e/ [Af]/d/[Bg]/[=Ad]/ | [Adf]d/[Af] d/[Af]/d/ | %25
 [=Af]c/[Af] c/[Af]/c/ | [=Ag]c<[Af] e | [Fd]B/[Fd] B/[Fd]/B/ | [Fe]B<[Fd] d | %29
 [Bb]d/[Bb] d/[Bb]/d/ | [cc']=e/ [Bb]2 z/ | [dfa]/b z/ [Bd][=Ae] | [Af]/d/e/[Af] d/[Af]/d/ | %33
 [=Gdf]/d/e/[Gdf] d/e/d/ | [Gcf]/c/e/[Gcf] c/[Gce] | [FAd]F/G/ =G/A/B/c/ |1,3 %36
!<(! [FAd][Ff][Gg][=G=g]!<)! :|2!<(! [FAd][Aa][Bb][dd']!<)! || c'[cgc'] b[cgb]/d'/ | %39
 c'/a/b/[cgc'] a/b/a/ | c'[dfc'] b[dfb]/d'/ | c'/a/b/[dfc'] b/a/f/ | [=Gdf]e/B e/f/e/ | %43
 [Gcf]e/[GA] [GA]/B/c/ | [FAe]/dA/ [D=Ec][DEB] |!<(! [DFA] [Aa][Bb][dd']!<)! | %46
 c'[cgc'] b[cgb]/d'/ | c'/a/b/[cgc'] a/b/a/ | c'[dfc'] b[dfb]/d'/ | c'/a/b/[dfc'] b/a/f/ | %50
 [Be]d/[=Ae] d/[Ae]/d/ | [Adf]/ba f/e/d/ | [=Gf]/d/e/[df] c/e | [FAd]2"_Fine." [dfad']2!fine! || %54
!ff! [=ed']/[ed'][ed']/ [ed']2 | [fd']/[fd'][fd']/ [fd']2 | [Dd]/[Dd][=D=d]/ [Ee][Dd] | %57
 [_D_d]!p! [Bd]/[Bd]/ [Bd][Bd] |:[K:Gb] =A/[Bd]=E/ [Fc]=D/[_Ec]/ | z/ =C/D/[_CB] D/[CA] | %60
 G/B [EGB]3/2-[EGB] | z/ D/E/F/ G/F/E/D/ | F/c [Ec]3/2-[Ec] | z/ D/E/F/ G/F/E/D/ | %64
 G/B/d/[GBe] B/[GBe] | z [Bd]/[Bd]/ [Bd][Bd] | =A/[Bd]=E/ [Fc]=D/[_Ec]/ | z/ =C/D/[_CB] D/[CA] | %68
 G/B [EGB]3/2-[EGB] |1 z [Bd]/[Bd]/ [Bd][Be] | [Ff]/d/B/[Ff] [Fd]B/ | d/F/=A/[Fd] A[E=c]/ | %72
 [DFB]F/[DB] F/[DFB] | [DFB][Bd]/[Bd]/ [Bd][Bd] :|2 z z/ G/ GG | [EA]G/[EA] G/[DA]/G/ | %76
 [DGB]e/d B/A/G/ | [=CB]/G/A/[CB]"_D.C. al FINE." D/[_CA] | [B,DG]2 [GBdg]2!D.C.! |] %79
V:2
 [B,DG][B,DG][=A,DG][A,DG] | [A,DF][A,DF][A,DF][A,DF] | [=G,DE][G,DE][G,DE][G,DE] | D2 z2 |: %4
 E,[A,CG] A,,[A,CG] | E,[A,CG] A,,[A,CG] | D,[A,DF] A,,[A,DF] | D,[A,DF] A,,[A,DF] | %8
 B,,[E,=G,D] E,,[E,G,D] | A,,[G,A,C] C,[G,A,C] | D,[F,A,D] B,,=G, | A,2 z2 | E,[A,CG] A,,[A,CG] | %13
 E,[A,CG] A,,[A,CG] | D,[A,DF] A,,[A,DF] | D,[A,DF] A,,[A,DF] | [B,DG][B,DG][=A,DG][A,DG] | %17
 [A,DF][A,DF][A,DF][A,DF] | [B,DE][B,DE][A,CE][A,CE] |1,3 D2 z2 :|2 [D,D]2 z2 |: %21
 E,[A,CG] A,,[A,CG] | [E,,E,] [A,CG] [A,,,A,,] [A,CG] | [D,,D,] [A,DF] [D,,D,] [B,DG] | %24
 [D,,D,] [A,DF] F,[A,DF] | C,[F,=A,E] F,,[F,A,E] | C,[F,=A,E] F,,[F,A,E] | B,,[F,B,D] F,,[F,B,D] | %28
 B,,[F,B,D] F,,[F,B,D] | [G,,G,][B,DG] D,[B,DG] | [=G,,=G,][B,D=E] G,[B,DE] | %31
 [A,,A,][A,DF] [B,DG][=A,DG] | [D,,D,] [A,DF] [F,,F,] [A,DF] | B,,[E,=G,D] E,,[E,G,D] | %34
 A,,[G,A,C] C,[E,G,A,C] | [D,D][B,,B,] [A,,A,][A,,,A,,] |1,3 [D,,D,]2 z2 :|2 [D,,D,]2 z2 || %38
 E,[A,CG] A,,[A,CG] | E,[A,CG] A,,[A,CG] | D,[A,DF] A,,[A,DF] | D,[A,DF] A,,[A,DF] | %42
 B,,[E,=G,D] E,,[E,G,D] | A,,[G,A,C] C,[G,A,C] | D,[F,A,D] B,,=G, | A,2 z2 | E,[A,CG] A,,[A,CG] | %47
 E,[A,CG] A,,[A,CG] | D,[A,DF] A,,[A,DF] | D,[A,DF] A,,[A,DF] | [B,DG][B,DG][=A,DG][A,DG] | %51
 [A,DF][A,DF][A,DF][A,DF] | [=G,DE][G,DE][A,C_G][A,CG] | [D,D]2 [D,,D,]2 || %54
[K:treble] [D=GBd]/[DGBd][DGBd]/ [DGBd]2 | [DA=Bd]/[DABd][DABd]/ [DABd]2 | %56
[K:bass] [D,,D,]/[D,,D,][=D,,=D,]/ [E,,E,][D,,D,] | [_D,,_D,]2 z2 |:[K:Gb] A,,[E,G,C] D,,[E,G,C] | %59
 A,,[D,F,_C] [D,,D,][D,F,] | G,,[D,G,B,] D,,[D,G,B,] | G,,[D,G,B,] D,,[D,G,B,] | %62
 A,,[D,F,C] D,,[D,F,C] | A,,[D,F,C] D,,[D,F,C] | G,,[D,G,B,] D,,[D,G,B,] | %65
 G,,[D,G,B,] D,,[D,G,B,] | A,,[E,G,C] D,,[E,G,C] | A,,[D,F,_C] [D,,D,][D,F,] | %68
 G,,[D,G,B,] D,,[D,G,B,] |1 G,,[D,G,B,] D,,[D,G,B,] | F,,[F,B,D] B,,[F,B,D] | %71
 =C,[F,=A,E] F,,[F,A,] | [B,,B,][F,,F,][D,,D,][F,,F,] | [B,,,B,,]2 z2 :|2 G,,[D,G,B,] D,,[D,G,B,] | %75
 [C,C][C,C][=C,=C][C,C] | [D,,D,] [D,G,B,] G,,[D,G,B,] | [A,,A,][A,,A,] [D,,D,][D,,D,] | %78
 [G,,G,]2 [G,,,G,,]2 |] %79

